!!!SOCIAL_FUNCTION:	woman's dance songs
!!!PDT:	1909
!!!OTL: No_181.krn
!!!REG: Great_Lakes
!!!LANG: Non-Tone
!!!LING_GROUP: Algonquin
**kern	**kern
*staff2	*staff1
=1-	=1-
*clefF4	*clefF4
*k[f#c#g#d#]	*k[f#c#g#d#]
*M3/4	*M3/4
12GG#^/	8.c#\L
12r	.
12GG#/	.
.	16c#\Jk
12GG#^/	8.c#\L
12r	.
12GG#/	.
.	16c#\Jk
12GG#^/	8.d#\L
12r	.
12GG#/	.
.	16c#\Jk
=2||	=2||
*M2/4	*M2/4
2r	4c#\
.	8.c#\L
.	16c#\Jk
=3||	=3||
*M3/4	*M3/4
2.r	8.G#\L
.	16G#\Jk
.	8.G#\L
.	16G#\Jk
.	8.A\L
.	16G#\Jk
=4||	=4||
*M2/4	*M2/4
2r	4G#\
.	8.G#\L
.	16G#\Jk
=5||	=5||
*M3/4	*M3/4
2.r	8.F#\L
.	16F#\Jk
.	8.F#\L
.	16F#\Jk
.	8.G#\L
.	16F#\Jk
=6	=6
2.r	2E\
.	4C#/
=7||	=7||
*M2/4	*M2/4
2r	8.F#\L
.	16F#\Jk
.	8.F#\L
.	16F#\Jk
=8	=8
2r	8.F#\L
.	16E\Jk
.	4E\
=9||	=9||
*M3/4	*M3/4
2.r	8.C#/L
.	16C#/Jk
.	2C#/
=10||	=10||
*M2/4	*M2/4
2r	2C#/
=11||	=11||
*M3/4	*M3/4
2.r	8.C#/L
.	16G#/Jk
.	8.G#\L
.	16G#\Jk
.	8.B\L
.	16G#\Jk
=12||	=12||
*M2/4	*M2/4
2r	2G#\
=13||	=13||
*M3/4	*M3/4
2.r	8.G#\L
.	16F#\Jk
.	8.F#\L
.	16F#\Jk
.	8.G#\L
.	16F#\Jk
=14	=14
2.r	2E\
.	4D#\
=15||	=15||
*M2/4	*M2/4
2r	8.F#\L
.	16F#\Jk
.	8.F#\L
.	16F#\Jk
=16	=16
2r	4F#\
.	4E\
=17||	=17||
*M3/4	*M3/4
2.r	8.C#/L
.	16C#/Jk
.	2C#/
=18||	=18||
*M2/4	*M2/4
2r	2C#/
=19||	=19||
*M3/4	*M3/4
2.r	8.c#\L
.	16c#\Jk
.	8.c#\L
.	16c#\Jk
.	8.d#\L
.	16c#\Jk
=20||	=20||
*M2/4	*M2/4
2r	4c#\
.	8.c#\L
.	16c#\Jk
=21||	=21||
*M3/4	*M3/4
2.r	8.G#\L
.	16G#\Jk
.	8.G#\L
.	16G#\Jk
.	8.A\L
.	16G#\Jk
=22||	=22||
*M2/4	*M2/4
2r	4G#\
.	8.G#\L
.	16G#\Jk
=23||	=23||
*M3/4	*M3/4
2.r	8.F#\L
.	16F#\Jk
.	8.F#\L
.	16F#\Jk
.	8.G#\L
.	16F#\Jk
=24	=24
2.r	2E\
.	4C#/
=25||	=25||
*M2/4	*M2/4
2r	8.F#\L
.	16F#\Jk
.	8.F#\L
.	16F#\Jk
=26	=26
2r	8.F#\L
.	16E\Jk
.	4E\
=27||	=27||
*M3/4	*M3/4
2.r	8.C#/L
.	16C#/Jk
.	2C#/
=28||	=28||
*M2/4	*M2/4
2r	2C#/
==	==
*-	*-
